X: 24565
T: Lúna In The Sky
R: reel
M: 4/4
K: Amixolydian
c2AG EAAG|ABcd eAcB|ABcd eAce|g2 ed edcd|
e2 cB ABcA|EAcd edce|~d3d defd|g2 ed Bcdf|
e2 cB ABcA|EAcd ~e3d|g2 ed cdec|deed ~g3f|
geed c3A|dcBc ~A3B|BAFA G3A|B/c/def gede||
|:~ e3e edcB|cE ~E2 edcA|e3e edcB|cdef eAcA|
Fd~d2 dAcA|FE ~E2 edcA|G3A B/c/def|gfed Bcde:|

